Newaita-dark/apps/64/com.github.lainsce.yishu.svg

<svg height="64pt" viewBox="0 0 64 64" width="64pt" xmlns="http://www.w3.org/2000/svg" xmlns:xlink="http://www.w3.org/1999/xlink"><linearGradient id="a" gradientUnits="userSpaceOnUse" x1="31.753043" x2="31.753043" y1="56.067871" y2="58.71395875004"><stop offset="0" stop-opacity=".27451"/><stop offset="1" stop-opacity="0"/></linearGradient><linearGradient id="b"><stop offset="0" stop-opacity=".313725"/><stop offset=".222222" stop-opacity=".27451"/><stop offset="1" stop-opacity="0"/></linearGradient><radialGradient id="c" cx="450.90894" cy="189.57936" gradientTransform="matrix(.00000035 -.156265 -.281277 -.0000002 104.261296 127.190669)" gradientUnits="userSpaceOnUse" r="21.166656" xlink:href="#b"/><radialGradient id="d" cx="450.90894" cy="189.57936" gradientTransform="matrix(-.00000035 .156265 .281277 .0000002 -40.755228 -15.054957)" gradientUnits="userSpaceOnUse" r="21.166656" xlink:href="#b"/><radialGradient id="e" cx="450.90894" cy="189.57936" gradientTransform="matrix(-.00000035 -.156265 .281277 -.0000002 -40.755228 127.190669)" gradientUnits="userSpaceOnUse" r="21.166656" xlink:href="#b"/><radialGradient id="f" cx="450.90894" cy="189.57936" gradientTransform="matrix(.00000035 .156265 -.281277 .0000002 104.261292 -15.054959)" gradientUnits="userSpaceOnUse" r="21.166656" xlink:href="#b"/><linearGradient id="g" gradientUnits="userSpaceOnUse" x1="21.16869824996" x2="21.16869824996" y1="56.067868" y2="5.79220950008"><stop offset="0" stop-color="#9ccc65"/><stop offset="1" stop-color="#aed581"/></linearGradient><linearGradient id="h" gradientUnits="userSpaceOnUse" x1="31.753048" x2="31.753048" y1="56.067868" y2="5.79220824996"><stop offset="0" stop-color="#bdbdbd"/><stop offset="1" stop-color="#e0e0e0"/></linearGradient><path d="m11.90625 55.871094h39.691406v2.941406h-39.691406zm0 0" fill="url(#a)"/><path d="m51.597656 56.066406h5.292969v-2.644531h-5.292969zm0 0" fill="url(#c)"/><path d="m11.90625 56.066406h-5.292969v2.648438h5.292969zm0 0" fill="url(#d)"/><path d="m11.90625 56.066406h-5.292969v-2.644531h5.292969zm0 0" fill="url(#e)"/><path d="m51.597656 56.066406h5.292969v2.648438h-5.292969zm0 0" fill="url(#f)"/><path d="m9.261719 5.792969h44.984375c1.460937 0 2.644531 1.183593 2.644531 2.644531v44.984375c0 1.460937-1.183594 2.644531-2.644531 2.644531h-44.984375c-1.460938 0-2.648438-1.183594-2.648438-2.644531v-44.984375c0-1.460938 1.1875-2.644531 2.648438-2.644531zm0 0" fill="url(#g)"/><path d="m9.261719 5.792969c-1.464844 0-2.648438 1.179687-2.648438 2.644531v.332031c0-1.464843 1.183594-2.648437 2.648438-2.648437h44.984375c1.464844 0 2.644531 1.183594 2.644531 2.648437v-.332031c0-1.464844-1.179687-2.644531-2.644531-2.644531zm0 0" fill="#e6e6e6" fill-opacity=".392157"/><path d="m9.261719 56.066406c-1.464844 0-2.648438-1.179687-2.648438-2.644531v-.332031c0 1.46875 1.183594 2.648437 2.648438 2.648437h44.984375c1.464844 0 2.644531-1.179687 2.644531-2.648437v.332031c0 1.464844-1.179687 2.644531-2.644531 2.644531zm0 0" fill-opacity=".196078"/><path d="m74.086675-168.660675h359.840637c11.686384 0 21.15423 9.467846 21.15423 21.15423v359.840637c0 11.686384-9.467846 21.154229-21.15423 21.154229h-359.840637c-11.686384 0-21.185477-9.467845-21.185477-21.154229v-359.840637c0-11.686384 9.499093-21.15423 21.185477-21.15423zm0 0" fill="none" stroke="#212121" stroke-linecap="round" stroke-width="3" transform="matrix(.125012 0 0 .125012 0 26.877566)"/><path d="m47.578125 16.359375c-.867187.023437-1.667969.472656-2.140625 1.203125l-14.1875 21.28125-10.964844-9.871094c-.699218-.644531-1.6875-.863281-2.589844-.574218-.90625.292968-1.582031 1.042968-1.777343 1.972656-.191407.929687.128906 1.890625.84375 2.515625l13.230469 11.910156c.566406.507813 1.332031.75 2.089843.652344.757813-.09375 1.4375-.515625 1.863281-1.152344l15.875-23.8125c.5625-.816406.617188-1.878906.144532-2.75s-1.394532-1.402344-2.386719-1.375zm0 0" fill="url(#h)"/><path d="m47.578125 16.359375c-.867187.023437-1.667969.472656-2.140625 1.203125l-14.1875 21.28125-10.964844-9.871094c-.839844-.773437-2.078125-.917968-3.070312-.363281-.996094.558594-1.519532 1.6875-1.300782 2.808594.183594-.9375.859376-1.703125 1.765626-2s1.902343-.082031 2.605468.566406l10.964844 9.867187 14.1875-21.28125c.472656-.726562 1.273438-1.179687 2.140625-1.203124 1.285156-.03125 2.410156.867187 2.65625 2.128906.152344-.785156-.058594-1.597656-.574219-2.207032-.515625-.609374-1.28125-.953124-2.082031-.929687zm0 0" fill="#fff"/><path d="m50.089844 20.007812c-.074219.175782-.160156.34375-.269532.5l-15.875 23.816407c-.425781.636719-1.105468 1.054687-1.863281 1.152343-.757812.09375-1.523437-.144531-2.089843-.65625l-13.230469-11.90625c-.308594-.269531-.546875-.605468-.703125-.984374-.421875 1.039062-.140625 2.226562.703125 2.96875l13.230469 11.90625c.566406.511718 1.332031.75 2.089843.65625.757813-.097657 1.4375-.515626 1.863281-1.152344l15.875-23.816406c.503907-.730469.601563-1.664063.269532-2.484376zm0 0" fill-opacity=".235294"/><path d="m380.588656-84.137497c-6.936838.187482-13.342476 3.780889-17.123365 9.624081l-113.489163 170.233744-87.710374-78.96121c-5.593215-5.155758-13.498711-6.90559-20.716771-4.593311-7.249308 2.343526-12.655042 8.342953-14.217393 15.779743-1.531103 7.43679 1.031152 15.123556 6.749356 20.123078l105.833643 95.272152c4.530818 4.062112 10.655233 5.999427 16.717154 5.218252 6.061921-.749929 11.498902-4.124606 14.904827-9.21787l126.987873-190.48181c4.49957-6.530626 4.937028-15.029815 1.156139-21.997899-3.780889-6.968085-11.155184-11.217679-19.091926-10.99895zm0 0" fill="none" stroke="#212121" stroke-linecap="round" stroke-linejoin="round" stroke-width="3" transform="matrix(.125012 0 0 .125012 0 26.877566)"/></svg>

<?xml version="1.0" encoding="UTF-8"?>
<svg xmlns="http://www.w3.org/2000/svg" xmlns:xlink="http://www.w3.org/1999/xlink" width="64pt" height="64pt" viewBox="0 0 64 64" version="1.1">
<defs>
<linearGradient id="linear0" gradientUnits="userSpaceOnUse" x1="254" y1="233.5" x2="254" y2="254.66667" gradientTransform="matrix(0.125012,0,0,0.125012,-0.00000500048,26.877569)">
<stop offset="0" style="stop-color:rgb(0%,0%,0%);stop-opacity:0.27451;"/>
<stop offset="1" style="stop-color:rgb(0%,0%,0%);stop-opacity:0;"/>
</linearGradient>
<radialGradient id="radial0" gradientUnits="userSpaceOnUse" cx="450.90894" cy="189.57936" fx="450.90894" fy="189.57936" r="21.166656" gradientTransform="matrix(0.000000348341,-0.156265,-0.281277,-0.000000203077,104.261296,127.190669)">
<stop offset="0" style="stop-color:rgb(0%,0%,0%);stop-opacity:0.313725;"/>
<stop offset="0.222222" style="stop-color:rgb(0%,0%,0%);stop-opacity:0.27451;"/>
<stop offset="1" style="stop-color:rgb(0%,0%,0%);stop-opacity:0;"/>
</radialGradient>
<radialGradient id="radial1" gradientUnits="userSpaceOnUse" cx="450.90894" cy="189.57936" fx="450.90894" fy="189.57936" r="21.166656" gradientTransform="matrix(-0.000000348341,0.156265,0.281277,0.000000203077,-40.755228,-15.054957)">
<stop offset="0" style="stop-color:rgb(0%,0%,0%);stop-opacity:0.313725;"/>
<stop offset="0.222222" style="stop-color:rgb(0%,0%,0%);stop-opacity:0.27451;"/>
<stop offset="1" style="stop-color:rgb(0%,0%,0%);stop-opacity:0;"/>
</radialGradient>
<radialGradient id="radial2" gradientUnits="userSpaceOnUse" cx="450.90894" cy="189.57936" fx="450.90894" fy="189.57936" r="21.166656" gradientTransform="matrix(-0.000000348341,-0.156265,0.281277,-0.000000203077,-40.755228,127.190669)">
<stop offset="0" style="stop-color:rgb(0%,0%,0%);stop-opacity:0.313725;"/>
<stop offset="0.222222" style="stop-color:rgb(0%,0%,0%);stop-opacity:0.27451;"/>
<stop offset="1" style="stop-color:rgb(0%,0%,0%);stop-opacity:0;"/>
</radialGradient>
<radialGradient id="radial3" gradientUnits="userSpaceOnUse" cx="450.90894" cy="189.57936" fx="450.90894" fy="189.57936" r="21.166656" gradientTransform="matrix(0.000000348341,0.156265,-0.281277,0.000000203077,104.261292,-15.054959)">
<stop offset="0" style="stop-color:rgb(0%,0%,0%);stop-opacity:0.313725;"/>
<stop offset="0.222222" style="stop-color:rgb(0%,0%,0%);stop-opacity:0.27451;"/>
<stop offset="1" style="stop-color:rgb(0%,0%,0%);stop-opacity:0;"/>
</radialGradient>
<linearGradient id="linear1" gradientUnits="userSpaceOnUse" x1="169.33333" y1="233.5" x2="169.33333" y2="-168.66666" gradientTransform="matrix(0.125012,0,0,0.125012,0,26.877566)">
<stop offset="0" style="stop-color:rgb(61.176471%,80%,39.607843%);stop-opacity:1;"/>
<stop offset="1" style="stop-color:rgb(68.235294%,83.529412%,50.588235%);stop-opacity:1;"/>
</linearGradient>
<linearGradient id="linear2" gradientUnits="userSpaceOnUse" x1="254" y1="233.5" x2="254" y2="-168.66667" gradientTransform="matrix(0.125012,0,0,0.125012,0,26.877566)">
<stop offset="0" style="stop-color:rgb(74.117647%,74.117647%,74.117647%);stop-opacity:1;"/>
<stop offset="1" style="stop-color:rgb(87.843137%,87.843137%,87.843137%);stop-opacity:1;"/>
</linearGradient>
</defs>
<g id="surface1">
<path style=" stroke:none;fill-rule:nonzero;fill:url(#linear0);" d="M 11.90625 55.871094 L 51.597656 55.871094 L 51.597656 58.8125 L 11.90625 58.8125 Z M 11.90625 55.871094 "/>
<path style=" stroke:none;fill-rule:nonzero;fill:url(#radial0);" d="M 51.597656 56.066406 L 56.890625 56.066406 L 56.890625 53.421875 L 51.597656 53.421875 Z M 51.597656 56.066406 "/>
<path style=" stroke:none;fill-rule:nonzero;fill:url(#radial1);" d="M 11.90625 56.066406 L 6.613281 56.066406 L 6.613281 58.714844 L 11.90625 58.714844 Z M 11.90625 56.066406 "/>
<path style=" stroke:none;fill-rule:nonzero;fill:url(#radial2);" d="M 11.90625 56.066406 L 6.613281 56.066406 L 6.613281 53.421875 L 11.90625 53.421875 Z M 11.90625 56.066406 "/>
<path style=" stroke:none;fill-rule:nonzero;fill:url(#radial3);" d="M 51.597656 56.066406 L 56.890625 56.066406 L 56.890625 58.714844 L 51.597656 58.714844 Z M 51.597656 56.066406 "/>
<path style=" stroke:none;fill-rule:nonzero;fill:url(#linear1);" d="M 9.261719 5.792969 L 54.246094 5.792969 C 55.707031 5.792969 56.890625 6.976562 56.890625 8.4375 L 56.890625 53.421875 C 56.890625 54.882812 55.707031 56.066406 54.246094 56.066406 L 9.261719 56.066406 C 7.800781 56.066406 6.613281 54.882812 6.613281 53.421875 L 6.613281 8.4375 C 6.613281 6.976562 7.800781 5.792969 9.261719 5.792969 Z M 9.261719 5.792969 "/>
<path style=" stroke:none;fill-rule:nonzero;fill:rgb(90.196078%,90.196078%,90.196078%);fill-opacity:0.392157;" d="M 9.261719 5.792969 C 7.796875 5.792969 6.613281 6.972656 6.613281 8.4375 L 6.613281 8.769531 C 6.613281 7.304688 7.796875 6.121094 9.261719 6.121094 L 54.246094 6.121094 C 55.710938 6.121094 56.890625 7.304688 56.890625 8.769531 L 56.890625 8.4375 C 56.890625 6.972656 55.710938 5.792969 54.246094 5.792969 Z M 9.261719 5.792969 "/>
<path style=" stroke:none;fill-rule:nonzero;fill:rgb(0%,0%,0%);fill-opacity:0.196078;" d="M 9.261719 56.066406 C 7.796875 56.066406 6.613281 54.886719 6.613281 53.421875 L 6.613281 53.089844 C 6.613281 54.558594 7.796875 55.738281 9.261719 55.738281 L 54.246094 55.738281 C 55.710938 55.738281 56.890625 54.558594 56.890625 53.089844 L 56.890625 53.421875 C 56.890625 54.886719 55.710938 56.066406 54.246094 56.066406 Z M 9.261719 56.066406 "/>
<path style="fill:none;stroke-width:3;stroke-linecap:round;stroke-linejoin:miter;stroke:rgb(12.941176%,12.941176%,12.941176%);stroke-opacity:1;stroke-miterlimit:4;" d="M 74.086675 -168.660675 L 433.927312 -168.660675 C 445.613696 -168.660675 455.081542 -159.192829 455.081542 -147.506445 L 455.081542 212.334192 C 455.081542 224.020576 445.613696 233.488421 433.927312 233.488421 L 74.086675 233.488421 C 62.400291 233.488421 52.901198 224.020576 52.901198 212.334192 L 52.901198 -147.506445 C 52.901198 -159.192829 62.400291 -168.660675 74.086675 -168.660675 Z M 74.086675 -168.660675 " transform="matrix(0.125012,0,0,0.125012,0,26.877566)"/>
<path style=" stroke:none;fill-rule:nonzero;fill:url(#linear2);" d="M 47.578125 16.359375 C 46.710938 16.382812 45.910156 16.832031 45.4375 17.5625 L 31.25 38.84375 L 20.285156 28.972656 C 19.585938 28.328125 18.597656 28.109375 17.695312 28.398438 C 16.789062 28.691406 16.113281 29.441406 15.917969 30.371094 C 15.726562 31.300781 16.046875 32.261719 16.761719 32.886719 L 29.992188 44.796875 C 30.558594 45.304688 31.324219 45.546875 32.082031 45.449219 C 32.839844 45.355469 33.519531 44.933594 33.945312 44.296875 L 49.820312 20.484375 C 50.382812 19.667969 50.4375 18.605469 49.964844 17.734375 C 49.492188 16.863281 48.570312 16.332031 47.578125 16.359375 Z M 47.578125 16.359375 "/>
<path style=" stroke:none;fill-rule:nonzero;fill:rgb(100%,100%,100%);fill-opacity:1;" d="M 47.578125 16.359375 C 46.710938 16.382812 45.910156 16.832031 45.4375 17.5625 L 31.25 38.84375 L 20.285156 28.972656 C 19.445312 28.199219 18.207031 28.054688 17.214844 28.609375 C 16.21875 29.167969 15.695312 30.296875 15.914062 31.417969 C 16.097656 30.480469 16.773438 29.714844 17.679688 29.417969 C 18.585938 29.121094 19.582031 29.335938 20.285156 29.984375 L 31.25 39.851562 L 45.4375 18.570312 C 45.910156 17.84375 46.710938 17.390625 47.578125 17.367188 C 48.863281 17.335938 49.988281 18.234375 50.234375 19.496094 C 50.386719 18.710938 50.175781 17.898438 49.660156 17.289062 C 49.144531 16.679688 48.378906 16.335938 47.578125 16.359375 Z M 47.578125 16.359375 "/>
<path style=" stroke:none;fill-rule:nonzero;fill:rgb(0%,0%,0%);fill-opacity:0.235294;" d="M 50.089844 20.007812 C 50.015625 20.183594 49.929688 20.351562 49.820312 20.507812 L 33.945312 44.324219 C 33.519531 44.960938 32.839844 45.378906 32.082031 45.476562 C 31.324219 45.570312 30.558594 45.332031 29.992188 44.820312 L 16.761719 32.914062 C 16.453125 32.644531 16.214844 32.308594 16.058594 31.929688 C 15.636719 32.96875 15.917969 34.15625 16.761719 34.898438 L 29.992188 46.804688 C 30.558594 47.316406 31.324219 47.554688 32.082031 47.460938 C 32.839844 47.363281 33.519531 46.945312 33.945312 46.308594 L 49.820312 22.492188 C 50.324219 21.761719 50.421875 20.828125 50.089844 20.007812 Z M 50.089844 20.007812 "/>
<path style="fill:none;stroke-width:3;stroke-linecap:round;stroke-linejoin:round;stroke:rgb(12.941176%,12.941176%,12.941176%);stroke-opacity:1;stroke-miterlimit:4;" d="M 380.588656 -84.137497 C 373.651818 -83.950015 367.24618 -80.356608 363.465291 -74.513416 L 249.976128 95.720328 L 162.265754 16.759118 C 156.672539 11.60336 148.767043 9.853528 141.548983 12.165807 C 134.299675 14.509333 128.893941 20.50876 127.33159 27.94555 C 125.800487 35.38234 128.362742 43.069106 134.080946 48.068628 L 239.914589 143.34078 C 244.445407 147.402892 250.569822 149.340207 256.631743 148.559032 C 262.693664 147.809103 268.130645 144.434426 271.53657 139.341162 L 398.524443 -51.140648 C 403.024013 -57.671274 403.461471 -66.170463 399.680582 -73.138547 C 395.899693 -80.106632 388.525398 -84.356226 380.588656 -84.137497 Z M 380.588656 -84.137497 " transform="matrix(0.125012,0,0,0.125012,0,26.877566)"/>
</g>
</svg>
